src/assets/images/free-demat-compaign/mutual-funds.svg

<svg width="48" height="48" viewBox="0 0 48 48" fill="none" xmlns="http://www.w3.org/2000/svg">
<path d="M29.7741 42.9519C26.6615 43.5908 23.576 43.6179 20.3954 43.0878C20.3954 43.3325 20.3954 43.5228 20.3954 43.7131C20.3274 45.5345 18.8866 46.9753 17.0653 47.0296C16.3721 47.0432 15.6653 47.084 14.9856 47.0024C13.2322 46.785 12.0225 45.3578 11.9817 43.5228C11.9546 42.5442 11.941 41.5519 11.9817 40.5733C12.0089 39.9888 11.8186 39.6354 11.3293 39.2956C8.12151 36.9985 5.78363 34.0489 4.66906 30.2023C4.13895 28.3945 3.94866 26.546 4.17973 24.6702C4.2341 24.2081 4.15255 23.9362 3.69041 23.7188C3.25545 23.5149 2.87487 23.1887 2.41273 22.876C2.12729 23.2022 1.82826 23.5421 1.52922 23.8683C1.12145 24.3032 0.645721 24.3576 0.278728 24.0314C-0.0882652 23.6916 -0.11545 23.1751 0.333097 22.7809C1.17582 22.0605 1.33893 21.3809 0.849607 20.2935C0.183582 18.8119 0.319505 17.208 1.02631 15.7129C1.36612 14.9789 1.88262 14.3944 2.68457 14.1769C4.00303 13.8235 5.40304 14.9653 5.49819 16.4604C5.56615 17.3847 5.33508 18.2546 4.91372 19.0566C4.47876 19.8993 3.97585 20.7013 3.47293 21.5848C3.77196 21.8158 4.11177 22.0877 4.50595 22.3867C6.24577 16.6779 10.106 13.0352 15.2439 10.6973C16.0866 11.8526 16.8886 12.9536 17.6769 14.041C16.9293 14.3264 16.0866 14.6391 15.2439 14.9789C14.7138 15.1964 14.5235 15.6313 14.7138 16.0663C14.9041 16.5284 15.339 16.6507 15.9099 16.4604C17.0653 16.0663 18.1934 15.6041 19.376 15.3187C23.9022 14.2313 28.3469 14.4896 32.7101 16.1206C32.8052 16.1614 32.9004 16.2022 32.9955 16.2294C33.512 16.4061 33.9606 16.2294 34.1237 15.7808C34.2868 15.3595 34.0829 14.8973 33.58 14.7342C32.4518 14.3536 31.3236 14.0274 30.1955 13.674C30.1003 13.6468 30.0052 13.6196 29.9916 13.6196C30.7256 12.4235 31.446 11.241 32.2343 9.94971C33.0906 10.3031 34.0829 10.7245 35.0615 11.1322C35.1975 11.1866 35.3606 11.241 35.4693 11.3361C36.3392 12.0565 37.2091 11.9206 38.1742 11.5128C39.4655 10.9691 40.8111 10.5478 42.1296 10.072C42.5373 9.92252 42.9315 9.85456 43.2441 10.2216C43.5703 10.5885 43.448 10.9691 43.2713 11.3633C42.6597 12.6818 42.0616 14.0138 41.4228 15.3187C41.2596 15.6585 41.314 15.8488 41.5587 16.107C42.9451 17.5886 44.182 19.1789 44.7665 21.1634C44.8073 21.2993 45.0111 21.4352 45.1607 21.4896C45.6228 21.6527 46.1121 21.7479 46.5743 21.9246C47.4578 22.2508 47.9607 22.9168 47.9743 23.8411C48.015 25.3498 48.0014 26.8586 47.9743 28.3673C47.9607 29.346 47.2675 30.1479 46.316 30.3654C45.6772 30.5149 45.0111 30.6101 44.3723 30.7732C44.2228 30.814 44.0053 30.9771 43.9781 31.113C43.0674 34.4567 41.1781 37.0936 38.3917 39.1325C38.2557 39.2412 38.1606 39.4995 38.147 39.6898C38.1198 40.8315 38.147 41.9597 38.147 43.1014C38.1334 45.2898 36.6926 46.7306 34.5042 46.7442C33.9606 46.7442 33.4169 46.7714 32.8732 46.717C31.079 46.5267 29.8693 45.249 29.7333 43.4277C29.7333 43.3053 29.7062 43.1966 29.6926 42.9927L29.7741 42.9519ZM39.0985 24.2353C39.982 24.2353 40.716 23.5149 40.7295 22.6314C40.7295 21.7479 40.0227 21.0003 39.1392 20.9867C38.2286 20.9731 37.481 21.7071 37.481 22.6178C37.481 23.5013 38.215 24.2353 39.0985 24.2353ZM2.43991 19.9809C2.50787 19.9944 2.58943 20.0216 2.65739 20.0352C3.05157 19.1517 3.47293 18.2682 3.81274 17.3575C3.93507 17.0313 3.89429 16.61 3.79915 16.2701C3.74478 16.0663 3.45934 15.8216 3.24186 15.7808C3.06516 15.7536 2.76613 15.9575 2.65739 16.1478C1.9234 17.3847 1.96418 18.676 2.43991 19.9673V19.9809Z" fill="white"/>
<path d="M30.4918 4.90684C29.486 1.9573 26.7675 0 23.6549 0C20.4743 0 17.6607 2.05244 16.7228 5.06994C15.7849 8.11463 16.9403 11.4312 19.5772 13.2118C19.7947 13.3613 20.1209 13.47 20.3655 13.4156C22.6898 13.0079 25.0141 12.9399 27.352 13.1438C27.5831 13.171 27.8821 13.0622 28.0724 12.9127C30.519 11.0234 31.4705 7.80201 30.4782 4.89324L30.4918 4.90684ZM26.5365 6.15733C26.4957 6.15733 26.4549 6.15733 26.4141 6.15733H26.3869H26.0064C25.6937 6.15733 25.3675 6.15733 25.0413 6.15733C24.7966 7.12239 23.9403 7.78841 22.9209 7.80201C22.8258 7.80201 22.7306 7.80201 22.6355 7.80201L24.8782 10.0447C24.919 10.0855 24.9869 10.1535 25.0277 10.2214C25.1636 10.4525 25.1365 10.7108 24.9598 10.9011C24.851 11.0234 24.7015 11.0778 24.5656 11.0778C24.4297 11.0778 24.3617 11.0506 24.2665 10.9962C24.1986 10.9554 24.1442 10.9011 24.0898 10.8603H24.0762C24.0762 10.8467 23.016 9.7729 23.016 9.7729C22.3364 9.09328 21.6432 8.40007 20.9636 7.72045C20.8549 7.61171 20.6238 7.38064 20.7733 7.02724C20.9228 6.67384 21.2626 6.68743 21.4121 6.68743H21.5481C22.0102 6.68743 22.4995 6.68743 22.9617 6.68743C23.3287 6.68743 23.6685 6.48355 23.8452 6.17092H22.7714C22.2957 6.17092 21.8063 6.17092 21.3306 6.17092C21.1539 6.17092 20.9908 6.10296 20.882 5.99422C20.7733 5.88549 20.7325 5.74956 20.7325 5.58645C20.7325 5.27383 20.9908 5.05635 21.3306 5.04276C21.3578 5.04276 21.3986 5.04276 21.4257 5.04276H21.4665H23.8452C23.8316 5.01557 23.8044 4.98839 23.7908 4.96121C23.5733 4.67577 23.2879 4.52625 22.9209 4.52625H22.3092C22.0102 4.52625 21.7112 4.52625 21.4121 4.52625C21.317 4.52625 21.2219 4.52625 21.1131 4.48547C20.8549 4.40392 20.7053 4.18644 20.7325 3.9146C20.7597 3.64275 20.9364 3.45246 21.1947 3.41168C21.2626 3.41168 21.3442 3.41168 21.3986 3.41168H21.4257C23.084 3.41168 24.7559 3.41168 26.4141 3.41168H26.4413C26.4821 3.41168 26.5365 3.41168 26.5772 3.41168C26.8763 3.43886 27.0666 3.64275 27.0937 3.92819C27.1073 4.21363 26.9442 4.4311 26.6588 4.49907C26.5501 4.52625 26.4549 4.52625 26.3734 4.52625H26.3326C25.884 4.52625 25.4219 4.52625 24.9733 4.52625H24.8646C24.9598 4.68936 25.0277 4.86606 25.0821 5.04276C25.5714 5.04276 26.0471 5.04276 26.5365 5.04276C26.8491 5.04276 27.0938 5.27383 27.1073 5.57286C27.1209 5.88549 26.8899 6.13015 26.5636 6.15733H26.5365Z" fill="white"/>
</svg>

<svg width="48" height="48" fill="none" xmlns="http://www.w3.org/2000/svg"><path d="M29.774 42.952c-3.113.639-6.198.666-9.379.136v.625a3.425 3.425 0 0 1-3.33 3.317c-.693.013-1.4.054-2.08-.028-1.753-.217-2.962-1.644-3.003-3.48-.027-.978-.041-1.97 0-2.949.027-.584-.163-.938-.653-1.277-3.207-2.297-5.545-5.247-6.66-9.094-.53-1.808-.72-3.656-.49-5.532.055-.462-.026-.734-.489-.951-.435-.204-.815-.53-1.277-.843a57.93 57.93 0 0 1-.884.992c-.408.435-.883.49-1.25.163-.367-.34-.394-.856.054-1.25.843-.72 1.006-1.4.517-2.487-.666-1.482-.53-3.086.176-4.581.34-.734.857-1.319 1.659-1.536 1.318-.354 2.718.788 2.813 2.283.068.925-.163 1.795-.584 2.597-.435.842-.938 1.644-1.441 2.528.299.23.639.503 1.033.802 1.74-5.71 5.6-9.352 10.738-11.69.843 1.156 1.645 2.257 2.433 3.344-.748.285-1.59.598-2.433.938-.53.217-.72.652-.53 1.087.19.462.625.585 1.196.394 1.155-.394 2.283-.856 3.466-1.141 4.526-1.088 8.97-.83 13.334.802.095.04.19.081.285.108.517.177.966 0 1.129-.448.163-.421-.041-.884-.544-1.047-1.128-.38-2.256-.707-3.384-1.06-.096-.027-.19-.054-.204-.054.734-1.196 1.454-2.379 2.242-3.67.857.353 1.849.775 2.828 1.182.136.055.299.109.407.204.87.72 1.74.585 2.705.177 1.291-.544 2.637-.965 3.956-1.441.407-.15.801-.217 1.114.15.326.367.204.747.027 1.141-.611 1.319-1.21 2.65-1.848 3.956-.163.34-.109.53.136.788 1.386 1.482 2.623 3.072 3.208 5.056.04.136.244.272.394.327.462.163.951.258 1.413.435.884.326 1.387.992 1.4 1.916.041 1.509.027 3.018 0 4.526-.013.979-.706 1.78-1.658 1.998-.639.15-1.305.245-1.944.408-.15.041-.367.204-.394.34-.91 3.344-2.8 5.98-5.586 8.02-.136.108-.231.366-.245.557-.027 1.142 0 2.27 0 3.411-.014 2.189-1.454 3.63-3.643 3.643-.543 0-1.087.027-1.63-.027-1.795-.19-3.005-1.468-3.14-3.29 0-.122-.028-.23-.041-.434l.081-.041zM39.1 24.235a1.64 1.64 0 0 0 1.63-1.604c0-.883-.706-1.63-1.59-1.644a1.633 1.633 0 0 0-1.658 1.63 1.63 1.63 0 0 0 1.617 1.618zm-36.66-4.254c.069.013.15.04.218.054.395-.883.816-1.767 1.156-2.677.122-.327.081-.748-.014-1.088-.054-.204-.34-.448-.557-.49-.177-.026-.476.178-.585.368-.734 1.237-.693 2.528-.217 3.82v.013z" fill="#fff"/><path d="M30.492 4.907C29.486 1.957 26.767 0 23.655 0c-3.18 0-5.994 2.052-6.932 5.07-.938 3.045.217 6.361 2.854 8.142.218.15.544.258.788.204 2.325-.408 4.65-.476 6.987-.272.231.027.53-.082.72-.231a7.187 7.187 0 0 0 2.406-8.02l.014.014zm-3.956 1.25h-1.495c-.244.965-1.1 1.631-2.12 1.645h-.285l2.242 2.243c.041.04.109.108.15.176a.553.553 0 0 1-.068.68.53.53 0 0 1-.394.177.517.517 0 0 1-.3-.082c-.067-.04-.122-.095-.176-.136h-.014c0-.013-1.06-1.087-1.06-1.087L20.964 7.72c-.11-.108-.34-.34-.19-.693.149-.353.489-.34.638-.34H22.962c.367 0 .707-.203.883-.516H21.331a.638.638 0 0 1-.449-.177.543.543 0 0 1-.15-.408c0-.312.259-.53.599-.543H23.846c-.014-.027-.042-.055-.055-.082a1.04 1.04 0 0 0-.87-.435h-1.509c-.095 0-.19 0-.299-.04a.522.522 0 0 1-.38-.571.537.537 0 0 1 .462-.503H26.577c.3.027.49.23.517.516a.534.534 0 0 1-.435.571 1.117 1.117 0 0 1-.286.027H24.865c.095.163.163.34.217.517h1.454c.313 0 .558.23.571.53.014.312-.217.557-.543.584h-.027z" fill="#fff"/></svg>
